<?xml version="1.0" encoding="UTF-8"?>
<map version="1.10" tiledversion="1.11.2" orientation="orthogonal" renderorder="right-down" width="32" height="18" tilewidth="32" tileheight="32" infinite="0" nextlayerid="3" nextobjectid="34">
 <tileset firstgid="1" source="mapa_concierto.tsx"/>
 <layer id="1" name="Capa de patrones 1" width="32" height="18">
  <data encoding="csv">
1,2,3,4,5,6,7,8,9,10,11,12,13,14,15,16,17,18,19,20,21,22,23,24,25,26,27,28,29,30,31,32,
33,34,35,36,37,38,39,40,41,42,43,44,45,46,47,48,49,50,51,52,53,54,55,56,57,58,59,60,61,62,63,64,
65,66,67,68,69,70,71,72,73,74,75,76,77,78,79,80,81,82,83,84,85,86,87,88,89,90,91,92,93,94,95,96,
97,98,99,100,101,102,103,104,105,106,107,108,109,110,111,112,113,114,115,116,117,118,119,120,121,122,123,124,125,126,127,128,
129,130,131,132,133,134,135,136,137,138,139,140,141,142,143,144,145,146,147,148,149,150,151,152,153,154,155,156,157,158,159,160,
161,162,163,164,165,166,167,168,169,170,171,172,173,174,175,176,177,178,179,180,181,182,183,184,185,186,187,188,189,190,191,192,
193,194,195,196,197,198,199,200,201,202,203,204,205,206,207,208,209,210,211,212,213,214,215,216,217,218,219,220,221,222,223,224,
225,226,227,228,229,230,231,232,233,234,235,236,237,238,239,240,241,242,243,244,245,246,247,248,249,250,251,252,253,254,255,256,
257,258,259,260,261,262,263,264,265,266,267,268,269,270,271,272,273,274,275,276,277,278,279,280,281,282,283,284,285,286,287,288,
289,290,291,292,293,294,295,296,297,298,299,300,301,302,303,304,305,306,307,308,309,310,311,312,313,314,315,316,317,318,319,320,
321,322,323,324,325,326,327,328,329,330,331,332,333,334,335,336,337,338,339,340,341,342,343,344,345,346,347,348,349,350,351,352,
353,354,355,356,357,358,359,360,361,362,363,364,365,366,367,368,369,370,371,372,373,374,375,376,377,378,379,380,381,382,383,384,
385,386,387,388,389,390,391,392,393,394,395,396,397,398,399,400,401,402,403,404,405,406,407,408,409,410,411,412,413,414,415,416,
417,418,419,420,421,422,423,424,425,426,427,428,429,430,431,432,433,434,435,436,437,438,439,440,441,442,443,444,445,446,447,448,
449,450,451,452,453,454,455,456,457,458,459,460,461,462,463,464,465,466,467,468,469,470,471,472,473,474,475,476,477,478,479,480,
481,482,483,484,485,486,487,488,489,490,491,492,493,494,495,496,497,498,499,500,501,502,503,504,505,506,507,508,509,510,511,512,
513,514,515,516,517,518,519,520,521,522,523,524,525,526,527,528,529,530,531,532,533,534,535,536,537,538,539,540,541,542,543,544,
545,546,547,548,549,550,551,552,553,554,555,556,557,558,559,560,561,562,563,564,565,566,567,568,569,570,571,572,573,574,575,576
</data>
 </layer>
 <objectgroup id="2" name="Colisiones">
  <object id="1" x="163.501" y="123.477" width="199.267" height="59.6097"/>
  <object id="2" x="167.759" y="183.938" width="181.384" height="19.586"/>
  <object id="3" x="166.907" y="203.525" width="154.985" height="7.6641"/>
  <object id="4" x="165.204" y="211.189" width="147.321" height="13.6251"/>
  <object id="5" x="175.423" y="225.665" width="117.516" height="5.96097"/>
  <object id="6" x="188.196" y="232.478" width="95.3755" height="5.96097"/>
  <object id="7" x="197.564" y="240.142" width="79.1957" height="7.6641"/>
  <object id="8" x="203.525" y="247.806" width="63.016" height="5.1094"/>
  <object id="9" x="226.517" y="253.767" width="28.9533" height="15.3282"/>
  <object id="10" x="689.769" y="337.221" width="214.595" height="40.8752"/>
  <object id="11" x="701.691" y="376.393" width="186.493" height="10.2188"/>
  <object id="12" x="714.465" y="386.611" width="162.649" height="8.51567"/>
  <object id="13" x="728.09" y="394.276" width="137.102" height="8.51567"/>
  <object id="14" x="737.457" y="402.791" width="114.11" height="7.6641"/>
  <object id="15" x="749.379" y="408.752" width="91.9692" height="8.51567"/>
  <object id="16" x="764.707" y="418.119" width="64.7191" height="11.0704"/>
  <object id="17" x="773.223" y="68.9769" width="40.8752" height="92.8208"/>
  <object id="18" x="712.762" y="68.9769" width="60.4613" height="40.0237"/>
  <object id="19" x="718.723" y="111.555" width="62.1644" height="10.2188"/>
  <object id="20" x="734.051" y="119.219" width="41.7268" height="15.3282"/>
  <object id="21" x="745.973" y="131.993" width="30.6564" height="10.2188"/>
  <object id="22" x="755.34" y="141.36" width="25.547" height="12.7735"/>
  <object id="23" x="814.95" y="69.8285" width="11.0704" height="92.8208"/>
  <object id="24" x="826.02" y="66.4222" width="12.7735" height="86.0083"/>
  <object id="25" x="838.794" y="69.8285" width="7.6641" height="67.2738"/>
  <object id="26" x="712.762" y="64.7191" width="163.501" height="48.5393"/>
  <object id="27" x="876.263" y="64.7191" width="5.1094" height="48.5393"/>
  <object id="28" x="848.161" y="111.555" width="26.3986" height="10.2188"/>
  <object id="29" x="847.309" y="122.626" width="12.7735" height="3.40627"/>
  <object id="30" x="846.458" y="126.884" width="9.36724" height="9.36724"/>
  <object id="31" x="381.502" y="252.064" width="38.3205" height="269.095"/>
  <object id="32" x="419.823" y="251.212" width="172.868" height="12.7735"/>
  <object id="33" x="554.37" y="265.689" width="36.6174" height="257.173"/>
 </objectgroup>
</map>
